X:476
T: WENN ALLE BRUENNLEIN FLIESSEN
N: E0429
O: Europa, Mitteleuropa, Deutschland, Odenwald; Limburg, Nauheim
R: Liebes - Lied
M: 2/4
L: 1/16
K: G
D2 | D2G2G2B2 | B2AGA2
d2 | B2G2A2c2 | B4z2
D2 | D2G2G2B2 | B2AGA2
d2 | B2G2A2c2 | B4z2
GA | B2d2d2e2 | d2cBc4
B4d4 | B2AGA2
d2 | B2B2A2c2 | B4z2

